!!!COM: Bach, Johann Sebastian
!!!OTA: Das wohltemperirte Clavier
!!!OPR: Das wohltemperierte Klavier
!!!OTL: Fuga 16, Vol. 1
!!!XEN: The Well-Tempered Clavier, Volume 1, Fugue 16.
!!!ONB: G minor, 4-part
!!!SCT: BWV 861b
!!!YEC: Copyright 1994, David Huron
!!!YEM: Rights to all derivative electronic formats reserved.
!!!RNB: The texture increases to five voices in the final two measures.
**kern	**kern	**kern	**kern
*staff2	*staff2	*staff1	*staff1
*clefF4	*clefF4	*clefG2	*clefG2
*k[b-e-]	*k[b-e-]	*k[b-e-]	*k[b-e-]
*M4/4	*M4/4	*M4/4	*M4/4
*g:	*g:	*g:	*g:
*MM60	*MM60	*MM60	*MM60
=1	=1	=1	=1
1r	1r	8r	1r
.	.	8d	.
.	.	8e-	.
.	.	8G	.
.	.	4F#	.
.	.	4G	.
=2	=2	=2	=2
1r	1r	8r	2r
.	.	16A	.
.	.	16B-	.
.	.	8c	.
.	.	16B-	.
.	.	16A	.
.	.	4B-	8r
.	.	.	8g
.	.	4G	8b-
.	.	.	8d
=3	=3	=3	=3
1r	1r	8r	4c#
.	.	16A	.
.	.	16G	.
.	.	8F	4d
.	.	16G	.
.	.	16A	.
.	.	8B-	8r
.	.	8G	16en
.	.	.	16f
.	.	8En	8g
.	.	8c#	16f
.	.	.	16e
=4	=4	=4	=4
1r	1r	4.d	8f
.	.	.	16g
.	.	.	16a
.	.	.	8b-
.	.	8en	16a
.	.	.	16g
.	.	8f	8a
.	.	8e	16b-
.	.	.	16cc
.	.	8f	8dd
.	.	8g	16cc
.	.	.	16b-
=5	=5	=5	=5
8r	1r	8a	4cc
8D	.	16g	.
.	.	16f#	.
8E-	.	8g	4b-
8GG	.	8c#	.
4FF#	.	8d	8a
.	.	4a	16dd
.	.	.	16ccn
4GG	.	.	8b-
.	.	16g	16cc
.	.	16f#	16dd
=6	=6	=6	=6
8r	2r	4g	8ee-
16AA	.	.	8cc
16BB-	.	.	.
8C	.	8f#	8a
16BB-	.	8a	8ff#
16AA	.	.	.
4BB-	8r	4dd	4gg
.	8G	.	.
4GG	8B-	4r	4r
.	8D	.	.
=7	=7	=7	=7
8r	4C#	1r	8r
16AA	.	.	8en
16GG	.	.	.
8FF	4D	.	8a
16GG	.	.	8f
16AA	.	.	.
8BB-	8r	.	4d
8GG	16En	.	.
.	16F	.	.
8EEn	8G	.	8c#
8C#	16F	.	[8e
.	16E	.	.
=8	=8	=8	=8
1D	8F	1r	8e]
.	16G	.	8d
.	16A	.	.
.	8B-	.	[4g
.	16A	.	.
.	16G	.	.
.	8A	.	16g]
.	.	.	16f#
.	16B-	.	16g
.	16c	.	16a
.	8d	.	[4b-
.	16c	.	.
.	16B-	.	.
=9	=9	=9	=9
8En	2.c	1r	4b-]
16A	.	.	.
16G	.	.	.
8F#	.	.	[4a
16G	.	.	.
16A	.	.	.
8BB-	.	.	16a]
.	.	.	16d
16C	.	.	16en
16D	.	.	16f#
8E-	8B-	.	[4g
16D	8e-	.	.
16C	.	.	.
=10	=10	=10	=10
2D	16A	1r	8g]
.	16B-	.	.
.	16A	.	16f#
.	16B-	.	16g
.	8c	.	8a
.	16B-	.	16g
.	16A	.	16f#
4.GG	8B-	.	4.g
.	16c	.	.
.	16d	.	.
.	[4e-	.	.
8AA	.	.	8cc
=11	=11	=11	=11
8BB-	4e-]	1r	8f
8F	.	.	16g
.	.	.	16a
8G	4d	.	2b-
8D	.	.	.
8E-	2c	.	.
16D	.	.	.
16E-	.	.	.
8F	.	.	4a
8FF	.	.	.
=12	=12	=12	=12
4BB-	4d	8r	4b-
.	.	8f	.
4r	4r	8g	4r
.	.	8B-	.
2r	8r	4A	2r
.	16F	.	.
.	16E-	.	.
.	8D	4B-	.
.	16E-	.	.
.	16F	.	.
=13	=13	=13	=13
2r	8G	8r	1r
.	8E-	16c	.
.	.	16d	.
.	8C	8e-	.
.	8A	16d	.
.	.	16c	.
8r	[2B-	16d	.
.	.	16en	.
8BB-	.	16d	.
.	.	16e	.
8D	.	8f	.
8FF	.	16e	.
.	.	16d	.
=14	=14	=14	=14
4EEn	8B-]	4.g	1r
.	16c	.	.
.	16B-	.	.
4FF	8A	.	.
.	16B-	16f	.
.	16c	16en	.
8r	8d	4f	.
16GG	8B-	.	.
16AA	.	.	.
8BB-	8G	8e	.
16AA	8en	[8b-	.
16GG	.	.	.
=15	=15	=15	=15
4AA	8.f	8b-]	8r
.	.	4a	8cc
.	16e-	.	.
4BB-	4d	.	8dd
.	.	16g	8f
.	.	16a	.
8r	4.c	8b-	4en
16C	.	16a	.
16BB-	.	16g	.
8AA	.	[4a	4f
16BB-	16d	.	.
16C	16c	.	.
=16	=16	=16	=16
8D	2B-	8a]	8r
8BB-	.	16g	16g
.	.	16f	16a
8GG	.	8en	8b-
8En	.	[8c	16a
.	.	.	16g
[2F	4A	8c]	8a
.	.	16d	16b-
.	.	16e-	16cc
.	16r	8.f	8dd
.	16B-	.	.
.	16c	.	16cc
.	16d	16g	16b-
=17	=17	=17	=17
8F]	8e-	4a	8cc
8F	16f	.	16dd
.	16e-	.	16cc
8G	8d	4g	8b-
8BB-	[8G	.	16cc
.	.	.	16dd
4AA	8G]	8r	8ee-
.	8F	8cc	16ff
.	.	.	16ee-
4BB-	8B-	8dd	8dd
.	8A-	8f	16ee-
.	.	.	16ff
=18	=18	=18	=18
8r	4G	4e-	8gg
16C	.	.	8ee-
16D	.	.	.
8E-	8An	4f	8cc
16D	8c	.	8aa
16C	.	.	.
8D	8F	8r	8bb-
16C	8r	16f	8r
16BB-	.	16g	.
8C	4r	8a-	4r
8D	.	16g	.
.	.	16f	.
=19	=19	=19	=19
8E-	1r	8g	8r
16D	.	8r	16gg
16C	.	.	16aa-
8D	.	4r	8bb-
8En	.	.	16aa-
.	.	.	16gg
8F	.	8r	8aa-
16FF	.	16ff	16aa-
16GG	.	16ee-	16gg
8AA-	.	8dd	8ff
16GG	.	16ee-	16gg
16FF	.	16ff	16aa-
=20	=20	=20	=20
8GG	1r	8bn	8dd
8G	.	16ee-	4gg
.	.	16dd	.
8A-	.	8cc	.
8C	.	16dd	16ff
.	.	16ee-	16ee-
4BBn	.	8f	4.dd
.	.	16g	.
.	.	16f	.
4C	.	8e-	.
.	.	16f	16cc
.	.	16g	16bn
=21	=21	=21	=21
8r	1r	8a-	4cc
16D	.	8f	.
16E-	.	.	.
8F	.	8d	8bn
16E-	.	8bn	8dd
16D	.	.	.
8E-	.	4cc	8g
8En	.	.	8gg
8F	.	8r	8aa-
8F#	.	8e-	8cc
=22	=22	=22	=22
16G	1r	8d	4bn
16A-	.	.	.
16G	.	16e-	.
16Fn	.	16f	.
8E-	.	8g	4cc
16F	.	16an	.
16G	.	16bn	.
8A-	.	8cc	8r
8F	.	16b	16dd
.	.	16cc	16ee-
8D	.	8dd	8ff
8Bn	.	[8g	16ee-
.	.	.	16dd
=23	=23	=23	=23
[4c	1r	8g]	16ee-
.	.	.	16dd
.	.	16cc	16ee-
.	.	16dd	16ff
16c]	.	8ee-	8gg
16d	.	.	.
16c	.	8g	8r
16B-	.	.	.
16A	.	4f#	8r
16D	.	.	.
16C	.	.	16dd
16D	.	.	16cc
16E-	.	[4g	8b-
16D	.	.	.
16C	.	.	16cc
16BB-	.	.	16dd
=24	=24	=24	=24
8AA	1r	8g]	16ee-
.	.	.	16dd
8C	.	16a	16cc
.	.	16b-	16b-
8D	.	8cc	8a
8DD	.	16b-	8ff#
.	.	16a	.
8GG	.	16b-	8gg
.	.	16d	.
16G	.	16en	8r
16A	.	16f#	.
8B-	.	[4g	16r
.	.	.	16dd
16A	.	.	16cc
16G	.	.	16b-
=25	=25	=25	=25
8d	1r	16g]	[4a
.	.	16g	.
16D	.	16fn	.
16E-	.	16e-	.
8F	.	[4d	16a]
.	.	.	16b-
16E-	.	.	16cc
16D	.	.	16dd
8EE-	.	16d]	[4g
.	.	16B-	.
16E-	.	16c	.
16F	.	16d	.
8G	.	[4e-	16g]
.	.	.	16b-
16F	.	.	16a-
16E-	.	.	16g
=26	=26	=26	=26
8B-	1r	16e-]	[4f
.	.	16e-	.
16BB-	.	16d	.
16C	.	16c	.
8D	.	[4B-	16f]
.	.	.	16g
16C	.	.	16a-
16BB-	.	.	16b-
8CC	.	16B-]	[4e-
.	.	16G	.
16C	.	16An	.
16D	.	16Bn	.
8E-	.	[4c	16e-]
.	.	.	16g
16D	.	.	16f
16C	.	.	16e-
=27	=27	=27	=27
8G	1r	16c]	[4d
.	.	16c	.
16GG	.	16B-	.
16AA	.	16A	.
8BB-	.	[4G	16d]
.	.	.	16d
16AA	.	.	16en
16GG	.	.	16f#
2E-	.	16G]	[4g
.	.	16G	.
.	.	16A	.
.	.	16B-	.
.	.	8c	16g]
.	.	.	16b-
.	.	8c#	16a
.	.	.	16g
=28	=28	=28	=28
4D	2r	4d	8f#
.	.	.	8dd
4r	.	4r	8ee-
.	.	.	8g
2r	8r	8r	4f
.	8d	16dd	.
.	.	16cc	.
.	8e-	8b-	4g
.	8G	16cc	.
.	.	16dd	.
=29	=29	=29	=29
8r	4F#	8ee-	8r
8D	.	8dd	16a
.	.	.	16b-
8E-	4G	8cc	8cc
8GG	.	8ee-	16b-
.	.	.	16a
4FF#	8r	8a	8dd
.	16A	8r	8r
.	16B-	.	.
4AA	8c	4r	4r
.	16B-	.	.
.	16A	.	.
=30	=30	=30	=30
8DD	[2B-	8r	2r
16D	.	16f#	.
16C	.	16g	.
8BB-	.	8a	.
16C	.	16g	.
16D	.	16f#	.
[2E-	8B-]	[2g	8r
.	16Bn	.	16dd
.	16A	.	16ee-
.	8G	.	8ffn
.	16A	.	16ee-
.	16B	.	16dd
=31	=31	=31	=31
8E-]	4c	2g]	[4ee-
16E-	.	.	.
16D	.	.	.
8C	4r	.	16ee-]
.	.	.	16dd
16D	.	.	16cc
16E-	.	.	16b-
8FF#	2r	8r	4a
16AA	.	8dd	.
16GG	.	.	.
8FF#	.	8ee-	8r
16GG	.	8g	16ee-
16AA	.	.	16dd
=32	=32	=32	=32
8DD	1r	4f#	8cc
16D	.	.	16dd
16C	.	.	16ee-
8BB-	.	4g	8dd
16C	.	.	16een
16D	.	.	16ff#
8E-	.	8r	8gg
8C	.	16a	16ff#
.	.	16b-	16gg
8AA	.	8cc	[4aa
8F#	.	16b-	.
.	.	16a	.
=33	=33	=33	=33
!! Five-voice material:
!! (Note that the tie in spine 4 above connects with spine 5 below.)
*	*	*^	*
8G	8r	4.b-	4.b-	8aa]
8Fn	8d	.	.	8dd
8E-	8e-	.	.	8gg
8D	8G	8g	8bn	8ff
8C	4F#	8a	8cc	8ee-
8BB-	.	8r	8r	8dd
8AA	4G	8d	8g	8cc
8GG	.	8r	8r	8b-
=34	=34	=34	=34	=34
8C	8r	4e-	4g	2a
8AA	16A	.	.	.
.	16B-	.	.	.
8D	8c	4d	4f#	.
8DD	16B-	.	.	.
.	16A	.	.	.
2GG;	2Bn;	2d;	2g;	2g;
==	==	==	==	==
*-	*-	*-	*-	*-
!!!CDT: 1685/3/-1750/7/28
!!!OCY: Deutschland
!!!PPP: Coethen; Cothen; Co2then
!!!ODT: <1722//
!!!PDT: 1722
!!!AFR: fuga; fugue
!!!AST: polyphony
!!!AMT: simple quadruple
!!!SCA: Bach-Werke-Verzeichnis
!!!YOR: Bach Gesellschaft
!!!SMS: British Library, various
!!!AIN: cemba; clavi
!!!EEV: 1.0
!!!RDT: 1986 November 21
!!!YER: 1994 August 10
!!!EFL: 16/48
!!!VTS: 4012839988
